X:19
T:Gan Ainm
R:Jig
S:Jim McKillop, Antrim (fiddle)
D:From RTE 'The Pure Drop'
N:As played
M:6/8
Z:Bernie Stocks
K:C
|: C2E DB,G, | CEG ~c3 | dcB cGE | FGA GFD | C2E DB,G, | CEG ~c3 | 
dcA GFE |1 {G}FDB, C2G, :|2 {G}FDB, CEG |: ~c3 dcd | ecA GEG | c2c (3.c.c.Bc |
AGE DEG | ~c3 dcd | ecA GEG | ~c3 AGE |1 FDB, CEG :|2 FDB, C2G, ||
<end>
<start>
